X:1
T:Title
%%score { ( 1 3 4 ) | ( 2 5 ) }
L:1/8
M:4/4
K:F
V:1 treble nm="Grand Piano"
V:3 treble 
V:4 treble 
V:2 bass 
V:5 bass 
V:1
 z4 z2[Q:1/4=106] (3dfb | [dfd']2 [dfc']2 [dfb]2 [FBd]2 | [GB^cg]4 [FBdf]2 dB | [FBd]4 [_EAc]4 | %4
[M:3/4] [DFB]2 [FAf]2 [Bdb]2 |[M:1/4] (3D[DF][DB] |[M:4/4] [Dd]2 [Dc]2 [DB]2 D2 | %7
 [^CG]4 [DF]2 (3D[DF][DB] | [Dd]2 [Dc]2 [DB]2 D2 | [_EG]4 [EF]2 (3FAc | _e2 c2 A2 F2 | %11
 [Fd]>[E^c] [Fd]>[DB] [DG]2 [DF]2 | [CE]>[CF] [EG]>[EA] [EB]>G A>B |[M:3/4] c6 | %14
[M:1/4] (3D[DF][DB] |[M:4/4] [Dd]2 [Dc]2 [DB]2 D2 | [^CG]4 [DF]2 (3D[DF][DB] | %17
 [Fd]2 [Fc]2 [FB]2 [_Ad]2 |[M:3/4] [G_e]4 [_EG]2 |[M:1/4] (3[_EG][FA][GB] | %20
[M:4/4] [Ac]2 [GB]2 [FA]2 [_EG]2 | [DF]>[^CE] [DF]>[DB] [Fd]2 [FB]2 | [Fd]3 [G_e] [Fd]2 [_Ec]2 | %23
[M:3/4] [DB]6 |[M:1/4] (3[DF][DB][_Ec] |[M:4/4] [Fd]6 z2 | [Fd]2 [Fd]4 (3[B,D][C_E][^C=E] | %27
 [DF]2 (3[DF][DG][DA] [DB]2 [Dc]>[DB] | z2[K:bass] F,>F,[K:treble] [A_e]2 (3FA[Ac] | [A_e]6 z2 | %30
 z2 [A_e]4 z2 | A2 (3AB=B c2 [Af]>[G_e] | [Fd]6 (3[DF][DB][_Ec] | [Fd]6 z2 | %34
 [Fd]2 [Fd]4 (3[B,D][C_E][^C=E] | [DF]2 (3[DF][DG][DA] [DB]2 (3[DB][_Ec][Fd] | %36
 [G_e]4 [_EG]2 (3[EG][FA][GB] | [Ac]>[GB] [FA]>[_EG] [GB]2 [FA]>[EG] | %38
 [DF]>[^CE] [DF]>[DB] [Fd]2 [FB]2 | [Fd]3 [G_e] [Fd]2 [_Ec]2 |[M:3/4] [DB]6 |] %41
V:2
 z8 | [B,,B,]2 [F,,F,]2 [B,,B,]2 [F,,F,]2 | [E,,E,]2 [E,,E,]2 [F,,F,]2 z2 | %3
 [F,,F,]2 [F,B,]2 [F,,F,]2 [F,A,]2 |[M:3/4] [B,,B,]2 [F,,F,]2 [B,,,B,,]2 | %5
[M:1/4] (3[B,,F,][B,,F,][B,,F,] |[M:4/4] [B,,F,]2 [B,,F,]2 [B,,F,]2 [B,,F,]2 | %7
 [B,,E,]4 [B,,F,]2 (3[B,,F,][B,,F,][B,,F,] | [B,,F,]2 [B,,F,]2 [B,,F,]2 [B,,F,]2 | %9
 [C,A,]4 [C,A,]2 (3[F,A,_E][F,A,E][F,A,E] | [F,A,_E]2 [F,A,E]2 [F,CE]2 [F,A,E]2 | %11
 [B,,B,]>[B,,B,] [B,,B,]>[B,,B,] [B,,B,]2 [B,,B,]2 | %12
 [C,B,]>[C,A,] [C,B,]>[C,C] [C,C]>[K:treble][B,CE] [A,CF]>[K:bass][G,CE] |[M:3/4] [F,A,_E]6 | %14
[M:1/4] (3[B,,F,][B,,F,][B,,F,] |[M:4/4] [B,,F,]2 [B,,F,]2 [B,,F,]2 [B,,F,]2 | %16
 [B,,F,]4 [B,,F,]2 (3[B,,F,][B,,F,][B,,F,] | [B,,B,]2 [C,A,]2 [D,B,]2 [B,,B,]2 | %18
[M:3/4] [_E,B,]4 [E,B,]2 |[M:1/4] (3[_E,B,][E,B,][E,B,] |[M:4/4] [_E,B,]2 [E,B,]2 [E,B,]2 [E,B,]2 | %21
 [B,,B,]>[B,,B,] [B,,B,]>[B,,B,] [B,,B,]2 [D,B,]2 | [F,B,]3 [F,B,] [F,B,]2 [F,A,]2 | %23
[M:3/4] [B,,B,]6 |[M:1/4] (3[B,,B,][B,,B,][B,,B,] |[M:4/4] [B,,B,]2 B,,2 z z/ E/ [B,,B,]2 | %26
 [B,,B,]2 [B,,B,]2 [B,,B,]2 (3[B,,F,][B,,F,][B,,G,] | %27
 [B,,B,]2 (3[B,,B,][B,,B,][B,,B,] [B,,F,]2 [B,,F,]>[B,,F,] | %28
 [C,F,]2 C,>C, [C,F,]2 (3[F,A,][F,A,F][F,A,] | [F,C]2 F,2 z z/ _A/ [F,C]2 | %30
 [F,C]2 [F,C]2 F,2 (3[F,A,][F,A,_E][F,B,E] | [F,C_E]2 (3[F,CE][F,CE][F,CE] [F,A,E]2 [F,C]>[F,A,] | %32
 [B,,B,]2 B,>B, B,2 (3[B,,B,][B,,B,][B,,B,] | [B,,B,]2 B,,2 z z/ E/ [B,,B,]2 | %34
 [B,,B,]2 [B,,B,]2 [B,,B,]2 (3[B,,F,][B,,F,][B,,G,] | %35
 [B,,B,]2 (3[B,,B,][B,,B,][B,,B,] [B,,B,]2 (3[B,,B,][B,,B,][B,,B,] | %36
 [_E,B,]4 [E,B,]2 (3[E,B,][E,B,][E,B,] | [_E,B,]>[E,B,] [E,B,]>[E,B,] [E,B,]2 [E,B,]>[E,B,] | %38
 [B,,B,]>[B,,B,] [B,,B,]>[B,,B,] [B,,B,]2 [D,B,]2 | [F,B,]3 [F,B,] [F,B,]2 [F,A,]2 | %40
[M:3/4] [B,,B,]6 |] %41
V:3
 x8 | x8 | x8 | z2 D2 z2 C2 |[M:3/4] x6 |[M:1/4] x2 |[M:4/4] x8 | x8 | x8 | x8 | x8 | x8 | x8 | %13
[M:3/4] x6 |[M:1/4] x2 |[M:4/4] x8 | x8 | x8 |[M:3/4] x6 |[M:1/4] x2 |[M:4/4] x8 | x8 | x8 | %23
[M:3/4] x6 |[M:1/4] x2 |[M:4/4] z2 B,2 z z/ ^c/ [Fd]>[Ec] | x8 | x8 | [_EA]4[K:bass][K:treble] z4 | %29
 z2 C2 z z/ d/ [A_e]>[_Ad] | [A_e]2 z2 C2 (3_EFG | x8 | x8 | z2 B,2 z z/ ^c/ [Fd]>[Ec] | x8 | x8 | %36
 x8 | x8 | x8 | x8 |[M:3/4] x6 |] %41
V:4
 x8 | x8 | x8 | x8 |[M:3/4] x6 |[M:1/4] x2 |[M:4/4] x8 | x8 | x8 | x8 | x8 | x8 | x8 |[M:3/4] x6 | %14
[M:1/4] x2 |[M:4/4] x8 | x8 | x8 |[M:3/4] x6 |[M:1/4] x2 |[M:4/4] x8 | x8 | x8 |[M:3/4] x6 | %24
[M:1/4] x2 |[M:4/4] z4 B,2 z2 | x8 | x8 | x2[K:bass] x2[K:treble] x4 | z4 C2 z2 | x8 | x8 | x8 | %33
 z4 B,2 z2 | x8 | x8 | x8 | x8 | x8 | x8 |[M:3/4] x6 |] %41
V:5
 x8 | x8 | x8 | x8 |[M:3/4] x6 |[M:1/4] x2 |[M:4/4] x8 | x8 | x8 | x8 | x8 | x8 | %12
 x11/2[K:treble] x2[K:bass] x/ |[M:3/4] x6 |[M:1/4] x2 |[M:4/4] x8 | x8 | x8 |[M:3/4] x6 | %19
[M:1/4] x2 |[M:4/4] x8 | x8 | x8 |[M:3/4] x6 |[M:1/4] x2 |[M:4/4] z4 B,,2 z2 | x8 | x8 | x8 | %29
 z4 F,2 z2 | x8 | x8 | x8 | z4 B,,2 z2 | x8 | x8 | x8 | x8 | x8 | x8 |[M:3/4] x6 |] %41

